dist/img/icons/Header/ios-copy.svg

<svg width="35" height="35" viewBox="0 0 35 35" fill="none" xmlns="http://www.w3.org/2000/svg">
<g clip-path="url(#clip0_362_777)">
<path fill-rule="evenodd" clip-rule="evenodd" d="M17.5 2.91675C17.1132 2.91675 16.7423 3.07039 16.4688 3.34388C16.1953 3.61737 16.0417 3.98831 16.0417 4.37508V7.29175H7.29167C6.51812 7.29175 5.77625 7.59904 5.22927 8.14602C4.68229 8.693 4.375 9.43487 4.375 10.2084V29.1667C4.375 29.9403 4.68229 30.6822 5.22927 31.2291C5.77625 31.7761 6.51812 32.0834 7.29167 32.0834H27.7083C28.4819 32.0834 29.2237 31.7761 29.7707 31.2291C30.3177 30.6822 30.625 29.9403 30.625 29.1667V10.2084C30.625 9.43487 30.3177 8.693 29.7707 8.14602C29.2237 7.59904 28.4819 7.29175 27.7083 7.29175H18.9583V4.37508C18.9583 3.98831 18.8047 3.61737 18.5312 3.34388C18.2577 3.07039 17.8868 2.91675 17.5 2.91675ZM18.9583 7.29175V20.1659L21.6242 17.5001C21.8976 17.2264 22.2686 17.0726 22.6554 17.0725C23.0423 17.0724 23.4133 17.2259 23.687 17.4994C23.9606 17.7728 24.1144 18.1438 24.1146 18.5306C24.1147 18.9175 23.9612 19.2885 23.6877 19.5622L18.7877 24.4607C18.4459 24.8022 17.9825 24.9941 17.4993 24.9941C17.0161 24.9941 16.5527 24.8022 16.2108 24.4607L11.3123 19.5622C11.1769 19.4267 11.0695 19.2658 10.9963 19.0888C10.923 18.9118 10.8854 18.7222 10.8854 18.5306C10.8855 18.3391 10.9233 18.1494 10.9967 17.9725C11.07 17.7955 11.1775 17.6348 11.313 17.4994C11.4485 17.364 11.6094 17.2566 11.7863 17.1833C11.9633 17.1101 12.153 17.0724 12.3446 17.0725C12.5361 17.0726 12.7258 17.1104 12.9027 17.1837C13.0797 17.2571 13.2404 17.3646 13.3758 17.5001L16.0417 20.1659V7.29175H18.9583Z" fill="#721BE3"/>
</g>
<defs>
<clipPath id="clip0_362_777">
<rect width="35" height="35" fill="white"/>
</clipPath>
</defs>
</svg>

<svg width="35" height="35" fill="none" xmlns="http://www.w3.org/2000/svg"><g clip-path="url(#a)"><path fill-rule="evenodd" clip-rule="evenodd" d="M17.5 2.917a1.458 1.458 0 0 0-1.458 1.458v2.917h-8.75a2.917 2.917 0 0 0-2.917 2.916v18.959a2.916 2.916 0 0 0 2.917 2.916h20.416a2.917 2.917 0 0 0 2.917-2.916V10.208a2.917 2.917 0 0 0-2.917-2.916h-8.75V4.375A1.458 1.458 0 0 0 17.5 2.917Zm1.458 4.375v12.874l2.666-2.666a1.458 1.458 0 1 1 2.064 2.062l-4.9 4.899a1.823 1.823 0 0 1-2.577 0l-4.899-4.899a1.458 1.458 0 0 1 2.064-2.062l2.666 2.666V7.292h2.916Z" fill="#721BE3"/></g><defs><clipPath id="a"><path fill="#fff" d="M0 0h35v35H0z"/></clipPath></defs></svg>
